X:14621
T:Roys Wife of Aldivallock.edited BF13.001
M:4/4
L:1/16
Q:180
S:J.Lishman(?)MS,c1825,Lakes,Browne Coll.
R:Strathspey
O:England
A:Lakes
N:I have Edited this tune somewhat to make it add up and playABC. Most of
N:the beams are my additions, to make it read easier.Where the note
N:lengths have been changed, refer to the uneditted version. One note
N:only has been missed out, at the start of the B strain, otherwise
N:everything else has
N:been accomodated by tweeking the note lengths.Obviously NOT copied from
N:a printed source! Chris P.
Z:vmp.CGP.
K:D
AF3 F3E F3E FB3|AF3 F3D F3D EF3|!
A3F  {F}E2D2 d3e {e}"pause"e3e|{e}d3B ABdF E3D E"NB1"F3||!
|A2(Bc) d3f (ed)(ef) d3A|A3B d2F2 {F}E3D E F2 A|!
A2(Bc) d3f (ed)(g"pause"f) {g4}e3d|df3 ed3 F2FE F2{A}(dB)|]


